!!!COM: Palestrina, Giovanni Perluigi da
!!!OPR: Missa Ad coenam Agni
!!!OMD: Sanctus
!!!OTL: First Section
**kern	**kern	**kern	**kern	**kern
*Ibass	*Itenor	*Icalto	*Icalto	*Icant
!Bassus	!Tenor	!Altus 2	!Altus 1	!Cantus
*clefF4	*clefGv2	*clefG2	*clefG2	*clefG2
*k[]	*k[]	*k[]	*k[]	*k[]
*G:mix	*G:mix	*G:mix	*G:mix	*G:mix
*M4/2	*M4/2	*M4/2	*M4/2	*M4/2
=1	=1	=1	=1	=1
0r	0r	0r	2.G	0g
.	.	.	4A	.
.	.	.	2B	.
.	.	.	[2c	.
=2	=2	=2	=2	=2
0r	0r	0r	2c]	0a
.	.	.	4d	.
.	.	.	4A	.
.	.	.	2c	.
.	.	.	2d	.
=3	=3	=3	=3	=3
0r	2.G	0r	4G	0g
.	.	.	4A	.
.	.	.	4B	.
.	4A	.	4c	.
.	2B	.	2d	.
.	[2c	.	[2e	.
=4	=4	=4	=4	=4
0r	4c]	0c	4e]	0a
.	4B	.	4d	.
.	4A	.	2f	.
.	4G	.	.	.
.	1A	.	2e	.
.	.	.	2f#	.
=5	=5	=5	=5	=5
0G	4G	0d	0g	0b
.	4A	.	.	.
.	4B	.	.	.
.	4c	.	.	.
.	2d	.	.	.
.	2g	.	.	.
=6	=6	=6	=6	=6
0A	2e	0c	1r	1cc
.	4d	.	.	.
.	4c	.	.	.
.	2e	.	1c	1a
.	2f#	.	.	.
=7	=7	=7	=7	=7
0G	1g	0d	2.B	[0b
.	.	.	4c	.
.	1r	.	2d	.
.	.	.	2G	.
=8	=8	=8	=8	=8
2.E	2.G	0e	1.g	1b]
4F	4A	.	.	.
2G	2B	.	.	1r
2A	[2c	.	2e	.
=9	=9	=9	=9	=9
1F	2c]	1f	1a	0r
.	4B	.	.	.
.	4A	.	.	.
1G	4B	1d	[1g	.
.	4c	.	.	.
.	4d	.	.	.
.	4B	.	.	.
=10	=10	=10	=10	=10
1C	1c	[0e	1g]	1r
2.E	2G	.	1r	2.g
.	2c	.	.	.
4F	.	.	.	4a
=11	=11	=11	=11	=11
2G	2B	1e]	1r	2b
1A	4A	.	.	1cc
.	4B	.	.	.
.	4c	1r	2.e	.
.	4d	.	.	.
4G	[2e	.	.	4b
4F	.	.	4f	4a
=12	=12	=12	=12	=12
2E	2e]	0r	2g	2cc
2D	4A	.	2.a	2dd
.	4B	.	.	.
1E	4c	.	.	1g
.	4B	.	4g	.
.	2G	.	[2g	.
=13	=13	=13	=13	=13
1D	1d	1r	2g]	[0a
.	.	.	2f	.
1r	2.A	2.c	[1e	.
.	4B	4d	.	.
=14	=14	=14	=14	=14
0r	2c	2e	2e]	1a]
.	1d	1f	2d	.
.	.	.	1r	[1a
.	4c	4e	.	.
.	4B	4d	.	.
=15	=15	=15	=15	=15
0r	2A	2f	2r	2a]
.	2G	2g	2.g	2b
.	1A	1c	.	1cc
.	.	.	4e	.
.	.	.	2f#	.
=16	=16	=16	=16	=16
1r	1G	[0d	2g	1b
.	.	.	2d	.
2.D	2r	.	2.f	1a
.	[2A	.	.	.
4E	.	.	4g	.
=17	=17	=17	=17	=17
2F	2A]	1d]	2a	0r
1G	1B-	.	2d	.
.	.	[1d	1g	.
4F	4A	.	.	.
4E	4G	.	.	.
=18	=18	=18	=18	=18
2D	1A	2d]	2f	0r
2C#	.	2e	2e	.
1D	2A	1f	1d	.
.	[2d	.	.	.
=19	=19	=19	=19	=19
1A	2d]	1e	1r	2r
.	2c#	.	.	1a
1D	2.d	1d	2r	.
.	.	.	2d	2b
.	8c	.	.	.
.	8B	.	.	.
=20	=20	=20	=20	=20
0r	2A	0r	2e	2cc#
.	2d	.	2f#	1dd
.	1G	.	1g	.
.	.	.	.	2b
=21	=21	=21	=21	=21
2r	1c	0r	2e	1.cc
1A	.	.	4c	.
.	.	.	4d	.
.	1r	.	4e	.
.	.	.	4f#	.
2B	.	.	[2g	2b
=22	=22	=22	=22	=22
2c	1r	2r	2g]	1a
2d	.	1d	2f#	.
2.G	2r	.	1g	1g
.	2G	2e	.	.
8F	.	.	.	.
8E	.	.	.	.
=23	=23	=23	=23	=23
2D	2A	2f#	2r	0r
2G	2B	1g	2d	.
1C	1c	.	4e	.
.	.	.	4f	.
.	.	2e	4g	.
.	.	.	4e	.
=24	=24	=24	=24	=24
2r	2A	1.f	1.a	0r
1D	4F	.	.	.
.	4G	.	.	.
.	4A	.	.	.
.	4B	.	.	.
2E	[2c	2e	2g	.
=25	=25	=25	=25	=25
2F	2c]	1d	2a	1dd
2G	2B	.	4g	.
.	.	.	4f	.
2C	2c	1c	2e	2ee
2F	2A	.	2a	2ff
=26	=26	=26	=26	=26
1E	2B	0r	1g	2gg
.	2c	.	.	2ee
4D	2d	.	2f	1ff
4E	.	.	.	.
4F	2A	.	[2a	.
4G	.	.	.	.
=27	=27	=27	=27	=27
4A	2c	0r	4a]	1ee
4B	.	.	4g	.
1c	2c	.	4e	.
.	.	.	4f	.
.	2G	.	1g	1dd
2B	[2g	.	.	.
=28	=28	=28	=28	=28
1.c	4g]	1g	1e	2.cc
.	4f	.	.	.
.	1e	.	.	.
.	.	.	.	4b
.	.	2a	1r	4a
.	.	.	.	4g
2B-	2d	2b-	.	[2g
=29	=29	=29	=29	=29
1A	1c	2cc	2r	2g]
.	.	2a	2c	2f#
2.G	2r	1b-	2d	1g
.	2G	.	2e	.
4F	.	.	.	.
=30	=30	=30	=30	=30
2D	2.A	1a	2f	0r
2F	.	.	2d	.
.	4B	.	.	.
1E	2c	1g	2.e	.
.	2B	.	.	.
.	.	.	4d	.
=31	=31	=31	=31	=31
1.F	2.A	2.f	4c	2r
.	.	.	4A	.
.	.	.	1a	2cc
.	4G	4e	.	.
.	4A	4d	.	2dd
.	4B	4c	.	.
2E	2c	[2c	2g	2ee
=32	=32	=32	=32	=32
1D	1d	2c]	2f	2ff
.	.	2B	2f	2dd
1C	2G	1c	1e	4ee
.	.	.	.	4ff
.	2c	.	.	[2ee
=33	=33	=33	=33	=33
2r	2d	0r	1a	4ee]
.	.	.	.	4dd
2F	2f	.	.	1dd
2G	1e	.	2r	.
2A	.	.	2a	2cc#
=34	=34	=34	=34	=34
2.B-	0d	2r	2f	[0dd
.	.	2f	1b-	.
4A	.	.	.	.
2G	.	2g	.	.
2F	.	2a	2a	.
=35	=35	=35	=35	=35
1G	2r	2b-	1g	0dd]
.	2.d	2g	.	.
2D	.	4a	2.f	.
.	4c	4b-	.	.
2F	2A	[2a	.	.
.	.	.	4e	.
=36	=36	=36	=36	=36
1G	1B	4a]	1d	1r
.	.	4g	.	.
.	.	1g	.	.
1D	1A	.	2r	1a
.	.	2f#	2d	.
=37	=37	=37	=37	=37
2r	0G	[0g	2d	2b
2C	.	.	2e	2cc
2G	.	.	4B	2dd
.	.	.	4c	.
2G	.	.	4d	2b
.	.	.	4B	.
=38	=38	=38	=38	=38
2.C	2.g	0g]	2.e	4cc
.	.	.	.	4dd
.	.	.	.	4ee
4D	4f	.	4d	4ff
2E	4e	.	2c	2.gg
.	4d	.	.	.
2E	[2e	.	2B	.
.	.	.	.	4ff
=39	=39	=39	=39	=39
1.C	4e]	[0g	2.c	1ee
.	4d	.	.	.
.	4c	.	.	.
.	4B	.	4d	.
.	2c	.	2e	1cc
2C	2c	.	2e	.
=40	=40	=40	=40	=40
[0G	[0B	1g_	[0d	[0dd
.	.	1g_	.	.
=41	=41	=41	=41	=41
0G]	0B]	0g]	0d]	0dd]
*-	*-	*-	*-	*-
!!!CDT: 1525/^1526/-1594/2/2
!!!OCY: Italia
!!!AGN: Mass (Canonic)
!!!AST: renaissance, vocal
!!!ASW: Hymn
!!!PWK: Masses, Book I
!!!RNB: Cadence finals: C
!!!YOR: Le Opere Complete, v. 1, p. 125
!!!YOO: Rome, Italy: Fratelli Scalera
!!!END: 1992//
!!!EED: John Miller
!!!YEC: Copyright 2000, John Miller
!!!YEN: United States of America
!!!YEM: Rights to all derivative electronic formats reserved.
!!!YEM: Refer to licensing agreement for further details.
!!!YEM: This file must be accompanied by the licensing agreement.
!!!YEM: A copy of the licensing agreement may be found at http://www.music-cog.ohio-state.edu/HumdrumDatabases/Palestrina/license.txt
!!!EMD: converted to Humdrum by Bret Aarden
